X:1
T:Title
%%score ( 1 2 ) ( 3 4 )
L:1/8
M:3/4
K:D
V:1 treble nm="Choir Aahs, Staff"
V:2 treble 
V:3 bass nm="Choir Aahs, Staff-1"
V:4 bass 
V:1
 [DA]2 [DF]4 | [EA]2 [Dd]4 | z2 G2 z2 | [DB]2 [CE]4 | [EA]>G D2- [D^G]2 | [EA]>[FB] [Ec]4 | %6
w: By~William~Horsley *||||||
 B-[DB] [CA]4 | [Dd]2 [DF]4 | [DB]2 [CE]4 | [DA]2 [B,D]2 [CE]2 | [DF]2 [DF]2 [CE]2 | %11
w: |||||
 [CA]2 [DA]2 [EG]2 | [DF]2 [B,F]>E [A,D]2 | [A,C]2 [A,D]4 |] %14
w: |||
V:2
 x6 | x6 | [DF]2 D2- [DA]2 | x6 | z2 F2 z2 | x6 | .E2 z2 z2 | x6 | x6 | x6 | x6 | x6 | x6 | x6 |] %14
V:3
 [D,F,]2 [D,A,]4 | [C,E,]2 [B,,F,]4 | [=C,A,]2 [B,,G,]2 [A,,F,]2 | [G,,G,]2 [A,,E,]4 | %4
 [C,E,]2 [D,A,]2 [B,,B,]2 | [C,A,]>D, [E,A,]4 | [E,^G,]2 [A,,A,]4 | [F,A,]2 B,2 A,2 | %8
 [G,B,]2 A,2 G,2 | [F,A,]2 G,4 | A,2 z2 z2 | z2 A,4 | [D,A,]2 [G,,G,]2 [A,,F,]2 | %13
 [A,,E,]2 [D,F,]4 |] %14
V:4
 x6 | x6 | x6 | x6 | x6 | x6 | x6 | x6 | x6 | x6 | F,D, [A,,A,]4 | [A,,A,]2 B,,2 C,2 | x6 | x6 |] %14

